X: 1
T:Bourree
C:Jean Blanchard
N:abc transcription Simon Wascher
N:if you find an error in this transcription please inform simon.wascher@chello.at
M:3/8
L:1/16
K:C
d2dc-cd|B2GABd|cBABAG|FGAGAc|
d2dc-cd|B2GABd|cBAFDG|A4A2:|
|:c2-cB-B2|A2ABcd|cBABAG|FGABdB|
c2-cB-B2|A2ABcd|cBAGFG|A4A2:|
